src/assets/filled/Sort.svg

<?xml version="1.0" encoding="UTF-8"?>
<svg width="24" height="24" viewBox="0 0 24 24" xmlns="http://www.w3.org/2000/svg">
 <path d="m16.19 2h-8.38c-3.64 0-5.81 2.17-5.81 5.81v8.37c0 3.65 2.17 5.82 5.81 5.82h8.37c3.64 0 5.81-2.17 5.81-5.81v-8.38c0.01-3.64-2.16-5.81-5.8-5.81zm-2.86 15h-2.67c-0.41 0-0.75-0.34-0.75-0.75s0.34-0.75 0.75-0.75h2.67c0.41 0 0.75 0.34 0.75 0.75s-0.33 0.75-0.75 0.75zm2.67-4.25h-8c-0.41 0-0.75-0.34-0.75-0.75s0.34-0.75 0.75-0.75h8c0.41 0 0.75 0.34 0.75 0.75s-0.34 0.75-0.75 0.75zm2-4.25h-12c-0.41 0-0.75-0.34-0.75-0.75s0.34-0.75 0.75-0.75h12c0.41 0 0.75 0.34 0.75 0.75s-0.34 0.75-0.75 0.75z"/>
</svg>

<svg width="24" height="24" viewBox="0 0 24 24"  xmlns="http://www.w3.org/2000/svg">
<path d="M16.19 2H7.81C4.17 2 2 4.17 2 7.81V16.18C2 19.83 4.17 22 7.81 22H16.18C19.82 22 21.99 19.83 21.99 16.19V7.81C22 4.17 19.83 2 16.19 2ZM13.33 17H10.66C10.25 17 9.91 16.66 9.91 16.25C9.91 15.84 10.25 15.5 10.66 15.5H13.33C13.74 15.5 14.08 15.84 14.08 16.25C14.08 16.66 13.75 17 13.33 17ZM16 12.75H8C7.59 12.75 7.25 12.41 7.25 12C7.25 11.59 7.59 11.25 8 11.25H16C16.41 11.25 16.75 11.59 16.75 12C16.75 12.41 16.41 12.75 16 12.75ZM18 8.5H6C5.59 8.5 5.25 8.16 5.25 7.75C5.25 7.34 5.59 7 6 7H18C18.41 7 18.75 7.34 18.75 7.75C18.75 8.16 18.41 8.5 18 8.5Z" />
</svg>
